X:4941
T:Fair Haired Lass, The
R:reel
H:Also in Amix, #558. See also #769
Z:id:hn-reel-669
M:C|
K:Ador
ea~a2 efgf|ea~a2 ABcd|ea~a2 efge|afge d2cd:|
|:eA~A2 efgf|eA~A2 BAGB|ABcd efge|afge d2cd:|
